lib/functional/office&editing/folder-simple-star.svg

<svg xmlns="http://www.w3.org/2000/svg" fill="none" stroke="currentColor" aria-hidden="true" viewBox="0 0 32 32"><g id="Icon-FolderSimpleStar"><g clip-path="url(#clip0_12_779)"><g id="size=md (32px)"><g id="FolderSimpleStar"><path id="Vector" stroke-linecap="round" stroke-linejoin="round" stroke-width="2" d="M15 26H5C4.73478 26 4.48043 25.8946 4.29289 25.7071C4.10536 25.5196 4 25.2652 4 25V8C4 7.73478 4.10536 7.48043 4.29289 7.29289C4.48043 7.10536 4.73478 7 5 7H11.6625C11.8787 7.00089 12.089 7.07098 12.2625 7.2L15.7375 9.8C15.911 9.92902 16.1213 9.99911 16.3375 10H27C27.2652 10 27.5196 10.1054 27.7071 10.2929C27.8946 10.4804 28 10.7348 28 11V15"/><path id="Vector_2" stroke-linecap="round" stroke-linejoin="round" stroke-width="2" d="M23.5 24.8125L27.2125 27L26.2 22.925L29.5 20.2L25.1625 19.8625L23.5 16L21.8375 19.8625L17.5 20.2L20.8 22.925L19.7875 27L23.5 24.8125Z"/></g></g></g></g><defs><clipPath id="clip0_12_779"><rect width="32" height="32" fill="white" rx="5"/></clipPath></defs></svg>

<svg xmlns="http://www.w3.org/2000/svg" fill="none" stroke="currentColor" aria-hidden="true" viewBox="0 0 32 32"><g stroke="#101828" stroke-linecap="round" stroke-linejoin="round" stroke-width="2" clip-path="url(#a)"><path d="M15 26H5a1 1 0 0 1-1-1V8a1 1 0 0 1 1-1h6.662c.217 0 .427.071.6.2l3.476 2.6c.173.129.383.2.6.2H27a1 1 0 0 1 1 1v4"/><path d="M23.5 24.813 27.212 27 26.2 22.925l3.3-2.725-4.337-.337L23.5 16l-1.663 3.863-4.337.337 3.3 2.725L19.788 27l3.712-2.188Z"/></g><defs><clipPath id="a"><rect width="32" height="32" fill="#fff" rx="5"/></clipPath></defs></svg>
